ui/StatusQ/src/assets/img/icons/tiny/checkmark.svg

<svg fill="none" height="17" viewBox="0 0 16 17" width="16" xmlns="http://www.w3.org/2000/svg"><path clip-rule="evenodd" d="m6.76413 10.1901 5.56067-5.41122c.382-.37171 1-.37297 1.3863.00299.3837.37336.3857.97674.0031 1.34906l-6.25845 6.09017c-.18993.1849-.43822.2781-.68737.2789-.25655-.0019-.50554-.0937-.69254-.2756l-2.79161-2.7166c-.38013-.36991-.37994-.96985.00641-1.34581.38367-.37336 1.00799-.37115 1.38299-.00623z" fill="#000" fill-rule="evenodd"/></svg>

<svg width="16" height="17" viewBox="0 0 16 17" fill="none" xmlns="http://www.w3.org/2000/svg">
<path fill-rule="evenodd" clip-rule="evenodd" d="M6.76413 10.1901L12.3248 4.77888C12.7068 4.40717 13.3248 4.40591 13.7111 4.78187C14.0948 5.15523 14.0968 5.75861 13.7142 6.13093L7.45575 12.2211C7.26582 12.406 7.01753 12.4992 6.76838 12.5C6.51183 12.4981 6.26284 12.4063 6.07584 12.2244L3.28423 9.5078C2.9041 9.13789 2.90429 8.53795 3.29064 8.16199C3.67431 7.78863 4.29863 7.79084 4.67363 8.15576L6.76413 10.1901Z" fill="black"/>
</svg>
